X: 18682
T: I'm A Poor Stranger And Far From My Own
R: waltz
M: 3/4
K: Gmajor
|(BA)|(GE) D2 (DE)|G2B2 (BG)|A2G2G2|G4 B2
c2c2e2|d2 (dB) (A>G)|G2 (G>A) (BA)|B4 (3(GAB)
c2c2e2|d2 (dB) (A>G)|G2 (GA) (B^c)|(d2>c2) BA|
(GE) D2 (DE)|G2 B2 (BG)|A2G2G2|G4||

